X:4902
T:P\aa{} rygg (Mats Edén) - Rejländer
O:england
C:Groupa: Vildhonung
M:2/4
L:1/16
K:C
AB|cCAA GCAB|cCAA GCf2|e2eg d2df|A2AB AGAB|\
cCAA GCAB|
cCAA GCf2|e2ed- dfdB-|BGAG c2:|\
z2DF A3B|ecBc B2A2-|
A2cA c3B|A2G2 G2AB|\
A2DF A3B|ecBc B2A2-|A2cA c3B|A2G2 G2|]


